;FLAVOR:Marlin
;TIME:5958
;Filament used: 10.9087m
;Layer height: 0.2
;MINX:98.455
;MINY:46.674
;MINZ:0.24
;MAXX:136.544
;MAXY:86.393
;MAXZ:97.84
;TARGET_MACHINE.NAME:ELEGOO NEPTUNE 4 Pro
;KLIPPERSETTINGSPROCESSED
SET_RETRACTION RETRACT_LENGTH=0.5 RETRACT_SPEED=45 UNRETRACT_SPEED=45 ;KlipperSettingsPlugin
SET_PRESSURE_ADVANCE ADVANCE=0 SMOOTH_TIME=0.04 EXTRUDER=extruder ;KlipperSettingsPlugin

M190 S90 ;KlipperSettingsPlugin
G28 ;KlipperSettingsPlugin
BED_MESH_CALIBRATE ;KlipperSettingsPlugin

;Generated with Cura_SteamEngine 5.10.2
;ELEGOO NEPTUNE 4 / 4 PRO
M220 S100 ;Set the feed speed to 100%
M221 S100 ;Set the flow rate to 100%
M104 S140 ;Start heating extruder
M190 S90 ;Wait for the bed to reach print temp
G90
G28 ;home
G1 Z10 F300
G1 X67.5 Y0 F6000
G1 Z0 F300
M109 S260 ;Wait for extruder to reach print temp
G92 E0 ;Reset Extruder
G1 X67.5 Y0 Z0.4 F300 ;Move to start position
G1 X167.5 E30 F400 ;Draw the first line
G1 Z0.6 F120.0 ;Move to side a little
G1 X162.5 F3000
G92 E0 ;Reset Extruder
M82 ;absolute extrusion mode
G92 E0
G92 E0
G10
;LAYER_COUNT:489
;LAYER:0
M107
M204 S800
M205 X11 Y11
G0 F3000 X100.674 Y58.323 Z0.24
M204 S500
M205 X9 Y9
;TYPE:SKIRT
G11
G1 F1500 X101.682 Y56.65 E0.10436
G1 X103.028 Y54.884 E0.22301
G1 X104.333 Y53.51 E0.32426
G1 X106.009 Y52.087 E0.44174
G1 X107.754 Y50.916 E0.55403
G1 X109.393 Y50.046 E0.65318
G1 X111.506 Y49.205 E0.77469
G1 X113.348 Y48.696 E0.8768
G1 X115.327 Y48.363 E0.98403
G1 X117.608 Y48.241 E1.10609
G1 X119.672 Y48.363 E1.21656
G1 X121.705 Y48.708 E1.32674
G1 X123.493 Y49.205 E1.4259
G1 X125.606 Y50.046 E1.54742
G1 X127.294 Y50.945 E1.64961
G1 X129.085 Y52.159 E1.76522
G1 X130.666 Y53.51 E1.87634
G1 X131.971 Y54.884 E1.97759
G1 X133.317 Y56.65 E2.09623
G1 X134.325 Y58.323 E2.2006
G1 X135.248 Y60.318 E2.31805
G1 X135.88 Y62.205 E2.42438
G1 X136.336 Y64.291 E2.53848
G1 X136.544 Y66.175 E2.63975
G1 X136.544 Y68.46 E2.76185
G1 X136.309 Y70.511 E2.87215
G1 X135.895 Y72.377 E2.97428
G1 X135.248 Y74.316 E3.0835
G1 X134.325 Y76.311 E3.20096
G1 X133.317 Y77.984 E3.30532
G1 X131.971 Y79.75 E3.42397
G1 X130.666 Y81.124 E3.52522
G1 X128.99 Y82.547 E3.6427
G1 X127.245 Y83.718 E3.75498
G1 X125.606 Y84.588 E3.85413
G1 X123.493 Y85.429 E3.97565
G1 X121.651 Y85.938 E4.07776
G1 X119.672 Y86.271 E4.18499
G1 X117.392 Y86.393 E4.30699
G1 X115.327 Y86.271 E4.41752
G1 X113.294 Y85.926 E4.5277
G1 X111.506 Y85.429 E4.62686
G1 X109.393 Y84.588 E4.74838
G1 X107.705 Y83.689 E4.85057
G1 X105.914 Y82.475 E4.96618
G1 X104.333 Y81.124 E5.07729
G1 X103.028 Y79.75 E5.17855
G1 X101.682 Y77.984 E5.29719
G1 X100.674 Y76.311 E5.40156
G1 X99.751 Y74.316 E5.51901
G1 X99.119 Y72.429 E5.62534
G1 X98.663 Y70.344 E5.73938
G1 X98.455 Y68.459 E5.84071
G1 X98.455 Y66.174 E5.96281
G1 X98.69 Y64.124 E6.07306
G1 X99.104 Y62.257 E6.17524
G1 X99.751 Y60.318 E6.28446
G1 X100.674 Y58.323 E6.40192
M204 S800
M205 X11 Y11
G0 F3000 X101.124 Y58.594
M204 S500
M205 X9 Y9
G1 F1500 X102.132 Y56.921 E6.50628
G1 X103.409 Y55.246 E6.61882
G1 X104.714 Y53.872 E6.72008
G1 X106.302 Y52.523 E6.83141
G1 X108 Y51.38 E6.94078
G1 X109.639 Y50.51 E7.03993
G1 X111.647 Y49.711 E7.1554
G1 X113.435 Y49.214 E7.25456
G1 X115.414 Y48.881 E7.36179
G1 X117.578 Y48.765 E7.47758
G1 X119.585 Y48.881 E7.585
G1 X121.564 Y49.214 E7.69223
G1 X123.352 Y49.711 E7.79139
G1 X125.36 Y50.51 E7.90686
G1 X126.999 Y51.38 E8.00601
G1 X128.79 Y52.594 E8.12162
G1 X130.285 Y53.872 E8.22671
G1 X131.59 Y55.246 E8.32797
G1 X132.867 Y56.921 E8.44051
G1 X133.875 Y58.594 E8.54487
G1 X134.75 Y60.485 E8.65621
G1 X135.382 Y62.372 E8.76254
G1 X135.814 Y64.349 E8.87067
G1 X136.022 Y66.233 E8.97195
G1 X136.022 Y68.401 E9.08779
G1 X135.796 Y70.397 E9.19512
G1 X135.382 Y72.263 E9.29725
G1 X134.75 Y74.149 E9.40353
G1 X133.875 Y76.04 E9.51486
G1 X132.867 Y77.713 E9.61923
G1 X131.59 Y79.388 E9.73177
G1 X130.285 Y80.762 E9.83302
G1 X128.697 Y82.111 E9.94436
G1 X126.999 Y83.254 E10.05373
G1 X125.36 Y84.124 E10.15287
G1 X123.352 Y84.923 E10.26835
G1 X121.564 Y85.42 E10.36751
G1 X119.585 Y85.753 E10.47474
G1 X117.422 Y85.869 E10.59048
G1 X115.414 Y85.753 E10.69795
G1 X113.435 Y85.42 E10.80518
G1 X111.647 Y84.923 E10.90434
G1 X109.639 Y84.124 E11.01981
G1 X108 Y83.254 E11.11896
G1 X106.209 Y82.04 E11.23457
G1 X104.714 Y80.762 E11.33966
G1 X103.409 Y79.388 E11.44091
G1 X102.132 Y77.713 E11.55346
G1 X101.124 Y76.04 E11.65782
G1 X100.249 Y74.149 E11.76915
G1 X99.617 Y72.262 E11.87549
G1 X99.185 Y70.286 E11.98356
G1 X98.977 Y68.401 E12.08489
G1 X98.977 Y66.233 E12.20073
G1 X99.203 Y64.238 E12.30801
G1 X99.617 Y62.371 E12.4102
G1 X100.249 Y60.485 E12.51648
G1 X101.124 Y58.594 E12.62781
M204 S800
M205 X11 Y11
G10
G0 F3000 X102.024 Y59.135
M204 S500
M205 X9 Y9
G11
G1 F1500 X103 Y57.51 E12.72909
G1 X104.171 Y55.97 E12.83247
G1 X105.476 Y54.596 E12.93372
G1 X106.89 Y53.393 E13.03292
G1 X108.492 Y52.308 E13.1363
G1 X110.131 Y51.438 E13.23545
G1 X111.929 Y50.723 E13.33884
G1 X113.717 Y50.226 E13.438
G1 X115.586 Y49.917 E13.53922
G1 X117.519 Y49.813 E13.64265
G1 X119.413 Y49.917 E13.74401
G1 X121.282 Y50.226 E13.84523
G1 X123.07 Y50.723 E13.94439
G1 X124.868 Y51.438 E14.04778
G1 X126.507 Y52.308 E14.14692
G1 X128.109 Y53.393 E14.25031
G1 X129.523 Y54.596 E14.34951
G1 X130.828 Y55.97 E14.45076
G1 X131.999 Y57.51 E14.55413
G1 X132.975 Y59.135 E14.65542
G1 X133.754 Y60.819 E14.75456
G1 X134.371 Y62.652 E14.8579
G1 X134.77 Y64.465 E14.95709
G1 X134.978 Y66.349 E15.05837
G1 X134.978 Y68.285 E15.16181
G1 X134.77 Y70.17 E15.26314
G1 X134.371 Y71.982 E15.36228
G1 X133.754 Y73.815 E15.46562
G1 X132.975 Y75.499 E15.56477
G1 X131.999 Y77.124 E15.66605
G1 X130.828 Y78.664 E15.76942
G1 X129.523 Y80.038 E15.87068
G1 X128.109 Y81.241 E15.96987
G1 X126.507 Y82.326 E16.07326
G1 X124.868 Y83.196 E16.17241
G1 X123.07 Y83.911 E16.27579
G1 X121.282 Y84.408 E16.37495
G1 X119.413 Y84.717 E16.47617
G1 X117.481 Y84.821 E16.57956
G1 X115.586 Y84.717 E16.68096
G1 X113.717 Y84.408 E16.78218
G1 X111.929 Y83.911 E16.88134
G1 X110.131 Y83.196 E16.98473
G1 X108.492 Y82.326 E17.08388
G1 X106.89 Y81.241 E17.18726
G1 X105.476 Y80.038 E17.28646
G1 X104.171 Y78.664 E17.38771
G1 X103 Y77.124 E17.49109
G1 X102.024 Y75.499 E17.59237
G1 X101.245 Y73.815 E17.69151
G1 X100.628 Y71.982 E17.79485
G1 X100.229 Y70.17 E17.89399
G1 X100.021 Y68.285 E17.99532
G1 X100.021 Y66.349 E18.09877
G1 X100.229 Y64.465 E18.20005
G1 X100.628 Y62.652 E18.29924
G1 X101.245 Y60.819 E18.40258
G1 X102.024 Y59.135 E18.50172
M204 S800
M205 X11 Y11
G0 F3000 X101.574 Y58.865
M204 S500
M205 X9 Y9
G1 F1500 X102.582 Y57.192 E18.60609
G1 X103.79 Y55.608 E18.71253
G1 X105.095 Y54.234 E18.81378
G1 X106.596 Y52.958 E18.91904
G1 X108.246 Y51.844 E19.02542
G1 X109.885 Y50.974 E19.12457
G1 X111.788 Y50.217 E19.234
G1 X113.576 Y49.72 E19.33316
G1 X115.5 Y49.399 E19.43739
G1 X117.548 Y49.289 E19.54697
G1 X119.499 Y49.399 E19.65139
G1 X121.423 Y49.72 E19.75561
G1 X123.211 Y50.217 E19.85477
G1 X125.114 Y50.974 E19.9642
G1 X126.753 Y51.844 E20.06335
G1 X128.449 Y52.993 E20.17281
G1 X129.904 Y54.234 E20.27499
G1 X131.209 Y55.608 E20.37624
G1 X132.417 Y57.192 E20.48268
G1 X133.425 Y58.865 E20.58705
G1 X134.252 Y60.652 E20.69226
G1 X134.884 Y62.539 E20.79859
G1 X135.292 Y64.407 E20.90076
G1 X135.5 Y66.291 E21.00204
G1 X135.5 Y68.343 E21.11168
G1 X135.283 Y70.283 E21.21599
G1 X134.869 Y72.149 E21.31811
G1 X134.252 Y73.982 E21.42146
G1 X133.425 Y75.769 E21.52667
G1 X132.417 Y77.442 E21.63103
G1 X131.209 Y79.026 E21.73747
G1 X129.904 Y80.4 E21.83873
G1 X128.403 Y81.676 E21.94399
G1 X126.753 Y82.79 E22.05037
G1 X125.114 Y83.66 E22.14952
G1 X123.211 Y84.417 E22.25895
G1 X121.423 Y84.914 E22.35811
G1 X119.499 Y85.235 E22.46233
G1 X117.452 Y85.345 E22.57187
G1 X115.5 Y85.235 E22.67633
G1 X113.576 Y84.914 E22.78056
G1 X111.788 Y84.417 E22.87972
G1 X109.885 Y83.66 E22.98915
G1 X108.246 Y82.79 E23.0883
G1 X106.55 Y81.641 E23.19776
G1 X105.095 Y80.4 E23.29994
G1 X103.79 Y79.026 E23.40119
G1 X102.582 Y77.442 E23.50763
G1 X101.574 Y75.769 E23.612
G1 X100.747 Y73.982 E23.71721
G1 X100.115 Y72.095 E23.82354
G1 X99.707 Y70.228 E23.92565
G1 X99.499 Y68.343 E24.02698
G1 X99.499 Y66.291 E24.13663
G1 X99.716 Y64.352 E24.24088
G1 X100.13 Y62.485 E24.34306
G1 X100.747 Y60.652 E24.4464
G1 X101.574 Y58.865 E24.55162
M204 S800
M205 X11 Y11
G10
;MESH:DysonAdapter_02.STL
G0 F3000 X103.314 Y71.95
M204 S500
M205 X9 Y9
;TYPE:WALL-OUTER
G11
G1 F1500 X103.201 Y71.64 E24.56841
G1 X102.796 Y69.958 E24.65645
G1 X102.588 Y68.233 E24.74486
G1 X102.582 Y66.486 E24.83377
G1 X102.785 Y64.72 E24.92423
G1 X103.188 Y63.031 E25.01259
G1 X103.781 Y61.398 E25.101
G1 X104.559 Y59.853 E25.18903
G1 X105.514 Y58.399 E25.27755
G1 X106.614 Y57.079 E25.36499
G1 X107.911 Y55.854 E25.45577
G1 X109.263 Y54.851 E25.54144
G1 X110.761 Y53.982 E25.62957
G1 X112.353 Y53.29 E25.71791
G1 X114.011 Y52.79 E25.80603
G1 X115.765 Y52.478 E25.89669
G1 X117.445 Y52.378 E25.98233
G1 X119.202 Y52.474 E26.07188
G1 X120.97 Y52.784 E26.16322
G1 X122.631 Y53.286 E26.25152
G1 X124.174 Y53.95 E26.337
G1 X125.704 Y54.833 E26.4269
G1 X127.108 Y55.872 E26.51578
G1 X128.363 Y57.058 E26.60365
G1 X129.463 Y58.371 E26.69081
G1 X130.418 Y59.815 E26.77891
G1 X131.213 Y61.386 E26.86851
G1 X131.795 Y62.988 E26.95525
G1 X132.2 Y64.674 E27.04349
G1 X132.408 Y66.399 E27.1319
G1 X132.412 Y68.184 E27.22274
G1 X132.211 Y69.912 E27.31127
G1 X131.808 Y71.601 E27.39963
G1 X131.215 Y73.234 E27.48804
G1 X130.447 Y74.765 E27.5752
G1 X129.482 Y76.233 E27.6646
G1 X128.346 Y77.588 E27.75458
G1 X127.126 Y78.74 E27.83997
G1 X125.733 Y79.781 E27.92846
G1 X124.235 Y80.65 E28.01659
G1 X122.655 Y81.334 E28.1042
G1 X120.943 Y81.852 E28.19522
G1 X119.231 Y82.154 E28.28369
G1 X117.498 Y82.254 E28.37203
G1 X115.741 Y82.152 E28.46159
G1 X114.077 Y81.856 E28.54759
G1 X112.377 Y81.347 E28.6379
G1 X110.822 Y80.678 E28.72404
G1 X109.307 Y79.809 E28.81292
G1 X107.87 Y78.74 E28.90406
G1 X106.65 Y77.588 E28.98945
G1 X105.533 Y76.261 E29.07771
G1 X104.578 Y74.817 E29.16581
G1 X103.783 Y73.238 E29.25577
G1 X103.314 Y71.95 E29.32553
M204 S800
M205 X11 Y11
G0 F3000 X103.246 Y71.763
G10
G0 X101.697 Y72.624
M204 S500
M205 X9 Y9
G11
G1 F1500 X101.987 Y73.488 E29.37191
G1 X102.754 Y75.14 E29.46459
G1 X103.682 Y76.679 E29.55604
G1 X104.764 Y78.108 E29.64726
G1 X106.022 Y79.437 E29.74038
G1 X107.397 Y80.605 E29.83219
G1 X108.897 Y81.621 E29.92438
G1 X110.494 Y82.466 E30.01633
G1 X112.164 Y83.132 E30.10782
G1 X113.905 Y83.616 E30.19977
G1 X115.694 Y83.907 E30.29201
G1 X117.5 Y84.009 E30.38406
G1 X119.302 Y83.908 E30.4759
G1 X121.091 Y83.615 E30.56815
G1 X122.832 Y83.132 E30.6601
G1 X124.502 Y82.467 E30.75157
G1 X126.099 Y81.621 E30.84354
G1 X127.599 Y80.605 E30.93573
G1 X128.974 Y79.436 E31.02757
G1 X130.232 Y78.108 E31.12066
G1 X131.315 Y76.679 E31.2119
G1 X132.241 Y75.14 E31.3033
G1 X133.009 Y73.489 E31.39596
G1 X133.581 Y71.783 E31.48753
G1 X133.971 Y70.019 E31.57946
G1 X134.166 Y68.219 E31.6716
G1 X134.166 Y66.413 E31.7635
G1 X133.971 Y64.613 E31.85563
G1 X133.581 Y62.849 E31.94757
G1 X133.009 Y61.143 E32.03913
G1 X132.242 Y59.492 E32.13177
G1 X131.315 Y57.953 E32.2232
G1 X130.232 Y56.524 E32.31444
G1 X128.974 Y55.196 E32.40753
G1 X127.599 Y54.027 E32.49937
G1 X126.099 Y53.011 E32.59156
G1 X124.502 Y52.166 E32.68351
G1 X122.832 Y51.5 E32.775
G1 X121.09 Y51.017 E32.86699
G1 X119.302 Y50.721 E32.95922
G1 X117.5 Y50.623 E33.05105
G1 X115.694 Y50.72 E33.14309
G1 X113.906 Y51.017 E33.23532
G1 X112.164 Y51.5 E33.32731
G1 X110.493 Y52.165 E33.41883
G1 X108.897 Y53.011 E33.51076
G1 X107.397 Y54.028 E33.60298
G1 X106.022 Y55.195 E33.69475
G1 X104.764 Y56.524 E33.78788
G1 X103.682 Y57.953 E33.87909
G1 X102.755 Y59.492 E33.97052
G1 X101.987 Y61.143 E34.06318
G1 X101.415 Y62.849 E34.15474
G1 X101.025 Y64.613 E34.24668
G1 X100.83 Y66.413 E34.33881
G1 X100.83 Y68.219 E34.43072
G1 X101.025 Y70.019 E34.52285
G1 X101.415 Y71.783 E34.61478
G1 X101.697 Y72.624 E34.65992
M204 S800
M205 X11 Y11
G0 F3000 X101.76 Y72.813
G0 X101.974 Y72.508
M204 S500
M205 X9 Y9
;TYPE:WALL-INNER
G1 F1500 X102.266 Y73.377 E34.70657
G1 X103.02 Y74.999 E34.7976
G1 X103.931 Y76.51 E34.88738
G1 X104.993 Y77.914 E34.97697
G1 X106.229 Y79.219 E35.06843
G1 X107.579 Y80.365 E35.15855
G1 X109.052 Y81.364 E35.24912
G1 X110.62 Y82.193 E35.33938
G1 X112.26 Y82.848 E35.42924
G1 X113.97 Y83.322 E35.51954
G1 X115.727 Y83.608 E35.61013
G1 X117.5 Y83.708 E35.7005
G1 X119.27 Y83.609 E35.79071
G1 X121.026 Y83.322 E35.88125
G1 X122.736 Y82.848 E35.97155
G1 X124.376 Y82.194 E36.0614
G1 X125.945 Y81.364 E36.15173
G1 X127.417 Y80.366 E36.24223
G1 X128.767 Y79.218 E36.33241
G1 X130.002 Y77.914 E36.4238
G1 X131.066 Y76.511 E36.51341
G1 X131.976 Y74.999 E36.60321
G1 X132.729 Y73.377 E36.69421
G1 X133.291 Y71.702 E36.78412
G1 X133.674 Y69.97 E36.87439
G1 X133.866 Y68.203 E36.96484
G1 X133.866 Y66.429 E37.05511
G1 X133.675 Y64.662 E37.14555
G1 X133.292 Y62.929 E37.23587
G1 X132.73 Y61.255 E37.32573
G1 X131.976 Y59.633 E37.41675
G1 X131.066 Y58.121 E37.50656
G1 X130.003 Y56.718 E37.59613
G1 X128.767 Y55.414 E37.68756
G1 X127.417 Y54.266 E37.77774
G1 X125.944 Y53.268 E37.86828
G1 X124.376 Y52.438 E37.95856
G1 X122.736 Y51.785 E38.04839
G1 X121.026 Y51.31 E38.13871
G1 X119.27 Y51.02 E38.22928
G1 X117.5 Y50.924 E38.31948
G1 X115.726 Y51.019 E38.40989
G1 X113.971 Y51.31 E38.50041
G1 X112.26 Y51.784 E38.59076
G1 X110.619 Y52.438 E38.68066
G1 X109.051 Y53.268 E38.77094
G1 X107.579 Y54.267 E38.86147
G1 X106.229 Y55.413 E38.95158
G1 X104.993 Y56.718 E39.04305
G1 X103.931 Y58.122 E39.13263
G1 X103.02 Y59.633 E39.22242
G1 X102.266 Y61.254 E39.31339
G1 X101.705 Y62.93 E39.40333
G1 X101.322 Y64.662 E39.4936
G1 X101.13 Y66.429 E39.58405
G1 X101.13 Y68.203 E39.67432
G1 X101.321 Y69.97 E39.76477
G1 X101.704 Y71.703 E39.85508
G1 X101.974 Y72.508 E39.89829
M204 S800
M205 X11 Y11
G0 F3000 X102.506 Y72.287
M204 S500
M205 X9 Y9
G1 F1116.1 X102.811 Y73.16 E39.96154
G1 F1146.8 X103.014 Y73.64 E39.99623
G1 F1145 X103.538 Y74.724 E40.07649
G1 F1150.3 X103.838 Y75.264 E40.11748
G1 X104.417 Y76.181 E40.18945
G1 X104.844 Y76.783 E40.23842
G1 F1148.5 X105.442 Y77.533 E40.30217
G1 X106.057 Y78.216 E40.36326
G1 X106.633 Y78.792 E40.41739
G1 X107.329 Y79.414 E40.47943
G1 X107.935 Y79.897 E40.53093
G1 F1146.8 X108.822 Y80.525 E40.60327
G1 F1148.5 X109.354 Y80.86 E40.64505
G1 F1145 X110.384 Y81.429 E40.7235
G1 F1146.8 X110.866 Y81.661 E40.7591
G1 F1116.1 X112.255 Y82.237 E40.86194
G1 F1121.1 X113.967 Y82.732 E40.98329
G1 F1132.9 X115.719 Y83.031 E41.10304
G1 F1143.3 X117.5 Y83.131 E41.22213
G1 X119.287 Y83.029 E41.34163
G1 F1132.9 X121.042 Y82.73 E41.46158
G1 F1121.1 X122.748 Y82.235 E41.58253
G1 F1114.4 X124.13 Y81.661 E41.68503
G1 F1148.5 X124.64 Y81.415 E41.72266
G1 F1146.8 X125.642 Y80.86 E41.79891
G1 X126.266 Y80.463 E41.84813
G1 F1148.5 X127.061 Y79.898 E41.91295
G1 F1152.1 X127.668 Y79.413 E41.96443
G1 X128.363 Y78.792 E42.02618
G1 F1148.5 X129.045 Y78.104 E42.09057
G1 F1145 X129.553 Y77.533 E42.14152
G1 F1146.8 X130.185 Y76.738 E42.20912
G1 F1148.5 X130.579 Y76.181 E42.25446
G1 X131.189 Y75.211 E42.33061
G1 F1152.1 X131.458 Y74.724 E42.36747
G1 F1117.7 X132.114 Y73.368 E42.47035
G1 F1122.8 X132.696 Y71.696 E42.59071
G1 F1129.5 X133.093 Y69.963 E42.71086
G1 F1143.3 X133.29 Y68.172 E42.83115
G1 F1146.8 X133.287 Y66.445 E42.94611
G1 F1134.6 X133.088 Y64.648 E43.06774
G1 F1122.8 X132.689 Y62.911 E43.1889
G1 F1119.4 X132.108 Y61.248 E43.30903
G1 F1114.4 X131.458 Y59.908 E43.41104
G1 F1150.3 X131.158 Y59.368 E43.45203
G1 F1148.5 X130.579 Y58.451 E43.5241
G1 F1150.3 X130.152 Y57.849 E43.57308
G1 X129.554 Y57.098 E43.63678
G1 X128.938 Y56.413 E43.69792
G1 F1153.8 X128.364 Y55.839 E43.75162
G1 F1157.4 X127.666 Y55.215 E43.81336
G1 F1155.6 X127.061 Y54.734 E43.86442
G1 F1148.5 X126.174 Y54.107 E43.93661
G1 X125.642 Y53.771 E43.97843
G1 F1150.3 X124.611 Y53.201 E44.0566
G1 F1155.6 X124.131 Y52.969 E44.09181
G1 F1124.4 X122.725 Y52.387 E44.19511
G1 F1129.5 X121.028 Y51.898 E44.31446
G1 F1138.1 X119.281 Y51.599 E44.43334
G1 F1143.3 X117.5 Y51.501 E44.55243
G1 F1139.8 X115.708 Y51.6 E44.67262
G1 F1131.2 X113.949 Y51.903 E44.79306
G1 F1122.8 X112.244 Y52.397 E44.91374
